src/assets/img/unsorted/emotes/24.svg

<svg xmlns:xlink="http://www.w3.org/1999/xlink" height="100.8" width="132.65" xmlns="http://www.w3.org/2000/svg"><g transform="translate(77.75 73.55)"><use height="6" transform="translate(-12.25 -2.75)" width="24.45" xlink:href="#a"/><use height="16.45" transform="translate(21 -24.8)" width="13.45" xlink:href="#b"/><use height="16.45" transform="translate(22.474 -1.3) scale(.4935)" width="13.45" xlink:href="#b"/><use height="16.45" transform="translate(37.204 -17.05) scale(.3636)" width="13.45" xlink:href="#b"/><use height="10.85" transform="translate(-1.55 3.3)" width="4.55" xlink:href="#c"/></g><defs><g id="a"><path d="M8.65-.15q3.5 1.8 3.55 2.8 0 .95-3.15.4L.9 2.3l-9.05.55-4.1-.2q0-.95 3.7-2.75Q-4.9-1.95.15-1.95q5-.05 8.5 1.8" fill="#6596cc" fill-opacity=".431" fill-rule="evenodd" transform="translate(12.25 2.75)"/><path d="m1.4-2.2.05.3.15.5.6.75q.6.5 1.4.65l.55.05Q5.3 0 6.1-.65q.65-.55.8-1.25v-.35m-13.1.1.05.25q.15.7.8 1.25.75.65 1.9.65l.65-.05q.75-.15 1.3-.6.6-.5.75-1.15v-.1l.05-.25" fill="none" stroke="#666" stroke-linecap="round" stroke-linejoin="round" transform="translate(12.25 2.75)"/></g><g id="e" fill-rule="evenodd"><path d="M5.75-3.6-1.3 5.1H6v2.15H-4.45V4.9L2.3-3.45h-6v-2.2h9.45v2.05" fill="#c00" transform="translate(5.2 6.45)"/><path d="m5-4.4-7.05 8.7h7.3v2.15H-5.2V4.1l6.75-8.35h-6v-2.2H5v2.05" fill="#fc0" transform="translate(5.2 6.45)"/></g><g id="c" fill-rule="evenodd"><path d="m1.05 7.8-1.5.15-.6-.3-.45-.95q-.2-1.5.35-2.75l.1-.2.35-.3.7-.15q2.05.4 1.75 2.55l-.1.8q-.6.5-.6.95v.2" fill="#333" transform="translate(1.55 -3.3)"/><path d="m1.65 6.65.2-.1q.35-.1.55 1.45l.45 3.1q.3 1.6-.05 2.4-.4.8-1.1.6-.7-.2-.35-2.55.35-2.35-.3-3.75v-.2q0-.45.6-.95" fill="#6596cc" fill-opacity=".431" transform="translate(1.55 -3.3)"/></g><use height="13.7" transform="matrix(1.2 0 0 1.2 .01 .01)" width="11.2" xlink:href="#d" id="b"/><use height="13.7" width="11.2" xlink:href="#e" id="d"/></defs></svg>

<?xml version="1.0" encoding="UTF-8" standalone="no"?>
<svg xmlns:xlink="http://www.w3.org/1999/xlink" height="100.8px" width="132.65px" xmlns="http://www.w3.org/2000/svg">
  <g transform="matrix(1.0, 0.0, 0.0, 1.0, 77.75, 73.55)">
    <use height="6.0" transform="matrix(1.0, 0.0, 0.0, 1.0, -12.25, -2.75)" width="24.45" xlink:href="#shape0"/>
    <use height="16.45" transform="matrix(1.0, 0.0, 0.0, 1.0, 21.0, -24.8)" width="13.45" xlink:href="#sprite0"/>
    <use height="16.45" transform="matrix(0.4935, 0.0, 0.0, 0.4935, 22.4739, -1.3001)" width="13.45" xlink:href="#sprite0"/>
    <use height="16.45" transform="matrix(0.3636, 0.0, 0.0, 0.3636, 37.2044, -17.0501)" width="13.45" xlink:href="#sprite0"/>
    <use height="10.85" transform="matrix(1.0, 0.0, 0.0, 1.0, -1.55, 3.3)" width="4.55" xlink:href="#shape2"/>
  </g>
  <defs>
    <g id="shape0" transform="matrix(1.0, 0.0, 0.0, 1.0, 12.25, 2.75)">
      <path d="M8.65 -0.15 Q12.15 1.65 12.2 2.65 12.2 3.6 9.05 3.05 L0.9 2.3 -8.15 2.85 -12.25 2.65 Q-12.25 1.7 -8.55 -0.1 -4.9 -1.95 0.15 -1.95 5.15 -2.0 8.65 -0.15" fill="#6596cc" fill-opacity="0.43137255" fill-rule="evenodd" stroke="none"/>
      <path d="M1.4 -2.2 L1.45 -1.9 1.6 -1.4 2.2 -0.65 Q2.8 -0.15 3.6 0.0 L4.15 0.05 Q5.3 0.0 6.1 -0.65 6.75 -1.2 6.9 -1.9 L6.9 -2.25 M-6.2 -2.15 L-6.15 -1.9 Q-6.0 -1.2 -5.35 -0.65 -4.6 0.0 -3.45 0.0 L-2.8 -0.05 Q-2.05 -0.2 -1.5 -0.65 -0.9 -1.15 -0.75 -1.8 L-0.75 -1.9 -0.7 -2.15" fill="none" stroke="#666666" stroke-linecap="round" stroke-linejoin="round" stroke-width="1.0"/>
    </g>
    <g id="sprite0" transform="matrix(1.0, 0.0, 0.0, 1.0, -23.25, -19.25)">
      <use height="13.7" transform="matrix(1.2, 0.0, 0.0, 1.2, 23.26, 19.26)" width="11.2" xlink:href="#sprite1"/>
    </g>
    <g id="sprite1" transform="matrix(1.0, 0.0, 0.0, 1.0, 5.2, 6.45)">
      <use height="13.7" transform="matrix(1.0, 0.0, 0.0, 1.0, -5.2, -6.45)" width="11.2" xlink:href="#shape1"/>
    </g>
    <g id="shape1" transform="matrix(1.0, 0.0, 0.0, 1.0, 5.2, 6.45)">
      <path d="M5.75 -3.6 L-1.3 5.1 6.0 5.1 6.0 7.25 -4.45 7.25 -4.45 4.9 2.3 -3.45 -3.7 -3.45 -3.7 -5.65 5.75 -5.65 5.75 -3.6" fill="#cc0000" fill-rule="evenodd" stroke="none"/>
      <path d="M5.0 -4.4 L-2.05 4.3 5.25 4.3 5.25 6.45 -5.2 6.45 -5.2 4.1 1.55 -4.25 -4.45 -4.25 -4.45 -6.45 5.0 -6.45 5.0 -4.4" fill="#ffcc00" fill-rule="evenodd" stroke="none"/>
    </g>
    <g id="shape2" transform="matrix(1.0, 0.0, 0.0, 1.0, 1.55, -3.3)">
      <path d="M1.05 7.8 L-0.45 7.95 -1.05 7.65 -1.5 6.7 Q-1.7 5.2 -1.15 3.95 L-1.05 3.75 -0.7 3.45 0.0 3.3 Q2.05 3.7 1.75 5.85 L1.65 6.65 Q1.05 7.15 1.05 7.6 L1.05 7.8" fill="#333333" fill-rule="evenodd" stroke="none"/>
      <path d="M1.65 6.65 L1.85 6.55 Q2.2 6.45 2.4 8.0 L2.85 11.1 Q3.15 12.7 2.8 13.5 2.4 14.3 1.7 14.1 1.0 13.9 1.35 11.55 1.7 9.2 1.05 7.8 L1.05 7.6 Q1.05 7.15 1.65 6.65" fill="#6596cc" fill-opacity="0.43137255" fill-rule="evenodd" stroke="none"/>
    </g>
  </defs>
</svg>
